X:29647
T:I Won't Be A Nun 29647
N:tune id: 3822; setting id: 29647
Z:Thady Quill
S:thesession.org
R:march
M:4/4
K:Gmajor
G>A|:Bdg>f g2 fe|dBB>A B2 AG|Bdce dBGB|A2 A>B AB/A/ GA|
Bdg>f g2 fe|dBB>A B2 AG|Bdce dBAB|G2 G>F G2:|
f>g|:afd>^c d2 ga|bge>d e2 ga|(3bag af ged>B|A2 A>B AB/A/ GA|
Bdg>f g2 fe|dBB>A B2 AG|Bdce dBAB|G2 G>F G2:|
